!!!COM: Beethoven
!!!OTL: Acht Variationen uber das Trio "Tandeln und Scherzen" aus der Oper: Soliman oder die drei Sultaninnen von Sussmayer
!!!Variation: Variation 3 a
**function	**harm	**kern	**kern
*	*	*clefF4	*clefG2
*	*	*k[b-]	*k[b-]
*M3/8	*M3/8	*M3/8	*M3/8
*F:	*F:	*F:	*F:
=73	=73	=73	=73
4.T	4.I	16FFLL	16r
.	.	32r	16f 16a 16cc
.	.	(32GGJ	.
.	.	16AA)	16r
.	.	32r	16f 16a 16cc
.	.	(32GGJ	.
.	.	16AA)	16r
.	.	32r	16f 16a 16cc
.	.	(32FFJJJ	.
=74	=74	=74	=74
4.T	4.V	16CLL)	16r
.	.	32r	16e 16g 16cc
.	.	(32CJ	.
.	.	16BB)	16r
.	.	32r	16e 16g 16cc
.	.	(32CJ	.
.	.	16D)	16r
.	.	32r	16e 16g 16cc
.	.	(32CJJJ	.
=75	=75	=75	=75
4.T	4.V7d	16BB-LL)	16r
.	.	32r	16e 16g 16cc
.	.	(32AAJ	.
.	.	16GG)	16r
.	.	32r	16e 16g 16cc
.	.	(32CJ	.
.	.	16BB)	16r
.	.	32r	16e 16g 16cc
.	.	(32CJJJ	.
=76	=76	=76	=76
4T	4Ib	16BB-LL)	16r
.	.	32r	16f 16a 16cc
.	.	(32AAJ	.
.	.	16GG)	16r
.	.	32r	16f 16a 16cc
.	.	(32FFJ	.
8T	8I	16EE)	16r
.	.	32r	16f 16a 16cc
.	.	(32FFJJJ	.
=77	=77	=77	=77
4.T	4.IV/V[I]	16FFFLL)	16r
.	.	32r	16a 16cc 16ff
.	.	(32FFJ	.
.	.	16AA)	16r
.	.	32r	16a 16cc 16ff
.	.	(32FFJ	.
.	.	16AA)	16r
.	.	32r	16a 16cc 16ff
.	.	(32BBJJJ	.
=78	=78	=78	=78
4.T	4.I/V	16CLL)	16r
.	.	32r	16g 16cc 16ee
.	.	(32BBJ	.
.	.	16C)	16r
.	.	32r	16g 16cc 16ee
.	.	(32DJ	.
.	.	16E)	16r
.	.	32r	16g 16cc 16ee
.	.	(32CJJJ	.
=79	=79	=79	=79
8P	8iib/V	16FLL)	16r
.	.	32r	16f 16a 16dd
.	.	(32DJ	.
8P	8Cc/V	16G)	16r
.	.	32r	16e 16g 16cc
.	.	(32F#J	.
8P	8V7/V	16G)	16r
.	.	32r	16d 16f 16g 16b
.	.	(32GGJJJ	.
=80	=80	=80	=80
4.D	4.V	16CLL)	16r
.	.	32r	16e 16g 16cc
.	.	(32CJ	.
.	.	16BB)	16r
.	.	32r	16e 16g 16cc
.	.	(32CJ	.
.	.	16BB-)	16r
.	.	32r	16e 16g 16cc
.	.	(32CJJJ	.
*-	*-	*-	*-
